outputs/icons/action/check_circle_round.svg

<svg xmlns="http://www.w3.org/2000/svg" width="1200" height="1200" fill="none"><g clip-path="url(#a)"><path fill="#000" d="M600 100c-276 0-500 224-500 500s224 500 500 500 500-224 500-500-224-500-500-500M464.5 814.5 285 635c-19.5-19.5-19.5-51 0-70.5s51-19.5 70.5 0l144.5 144 344-344c19.5-19.5 51-19.5 70.5 0s19.5 51 0 70.5L535 814.5c-19 19.5-51 19.5-70.5 0"/></g><defs><clipPath id="a"><path fill="#fff" d="M0 0h1200v1200H0z"/></clipPath></defs></svg>

<svg width="1200" height="1200" viewBox="0 0 1200 1200" fill="none" xmlns="http://www.w3.org/2000/svg"><g clip-path="url(#clip0_217_702)"><path d="M600 100C324 100 100 324 100 600C100 876 324 1100 600 1100C876 1100 1100 876 1100 600C1100 324 876 100 600 100ZM464.5 814.5L285 635C265.5 615.5 265.5 584 285 564.5C304.5 545 336 545 355.5 564.5L500 708.5L844 364.5C863.5 345 895 345 914.5 364.5C934 384 934 415.5 914.5 435L535 814.5C516 834 484 834 464.5 814.5Z" fill="#1D1E23"/></g><defs><clipPath id="clip0_217_702"><path width="24" fill="white" d="M0 0H1200V1200H0V0z"/></clipPath></defs></svg>
